X:17358
T:The Wind That Shakes the Barley
M:C|
R:reel
K:D
|"D"A2AB AFED|"Bm"B2BA BcdB|"D"A2 AB AFED|"G"gfed "A7"BcdB|
"D"A2AB AFEF|"Bm"DBBA BcdB|"D"A2AB ADFA|"G"gfed "A7"Bcde||
|"D"f2fd "G"g2ge|"D"f2fd "A7"Bcde|"D"f2df "G"gefg|"D"afed "A7"Bcde|
"D"f2fd "G"g2ge|"D"f2fd "A7"Bcd2|"D"defg afbf|"G"gfed "A7"BcdB||
